X:1
T:Fun's All Over [2]
N:From the playing of W.Va. fiddler Doc White (1889-1974), from
N:a an early 1960's field recording by David Morris & Fern Rollyson
M:C|
L:1/8
R:Reel
Q:"Quick"
D: https://soundarchives.berea.edu/items/show/3294
Z:Transcribed by Andrew Kuntz
K:C
c2|[e4e4][e3e3]d|c3d cAG[Gc]|A2[B2g2]- [Bg] a[B2g2]| [M:3/4][Bg][Bg]e2d2|[M:C|]c4c2d2|
[e4e4][e3e3]d|c3d cAG2|A2d2 ccAB| c4||
G2c2 A2G2|ABAG E2G2|A2d2c2d2|eged c2G2|
c3(c/d/c) G2|ABAG E2[D2d2]-|[D2d2]g2 [dg]ged|c6||

